X:9
T: Édesanyám, ha megúnt
O: Béd (Nyitra), 1906
Q: "Lento" 1/4=60
M:4/4
L:1/4
K:G
G>F B/<A/ | G/F/ A>G | F<D D z | 
A/A/ A<d | c>B d/G/ | B<A A z | 
A/A/ A<d | c>B d/G/ | F/D/ G z |
G>F B/A/ | G/F/ A>G | F<D D z | 